X:1
T:Don't forget the Salvation Army
T:Don't Forget the Salvation Army
T:(My Doughnut Girl)
T:Music by Robert Brown and William Frisch 
T:        Words by Elmore Leffingwell and James Lucas 
T:Copyright MCMXIX by Broadway Music Corporation, 145 W. 45th St., New York
T:Copyright MCMXIX by Broadway Music Corporation, 145 W. 45th St., New York
C:Robert Brown and William Frisch
Z:Elmore Leffingwell and James Lucas
Z:Copyright MCMXIX by Broadway Music Corporation, 145 W. 45th St., New York
%%score 1 { ( 2 3 ) | ( 4 5 ) }
L:1/8
Q:1/4=114
M:2/4
K:Eb
V:1 treble nm="Voice"
V:2 treble nm="Piano"
V:3 treble 
V:4 bass 
V:5 bass 
V:1
"^Marcia moderato" z4 | z4 | z4 | z4 | z4 | z4 | z4 | z4 |: z4 | z4 :|"^VOICE" E G F D | E G F D | %12
w: ||||||||||Pen- nies, nick- els,|dimes and quar- ters,|
w: ||||||||||Glo- ry, Hal- le-|lu- jah, you will|
 E B2 B- | B4 | E G F D | E G F D | E B2 B- | B3 ^F | G B =A ^F | G B =A ^F | G d B d- | d4 | %22
w: hear them ring|_|Oh what joy and|oh what bliss those|coins can bring|_ For|now our boys are|land- ing at our|shores ev- 'ry day|_|
w: hear them shout|_|Help- ing an- y|stran- ger who is|down and out|_ Hu-|man- i- ty up-|lift- ing in their|most cheer- full way|_|
 d ^c d B | =c =A G F | B4- | B4 |: !>!E2 !>!F2 | !>!G2 !>!A2 | B =A B e- | e !>!_d3 | c =B c e- | %31
w: This is what you're|bound to hear them|say:|_|Don't for-|get the|Sal- va- tion Ar-|* my,|Al- ways re- mem-|
w: Is it an- y|won- der that we|say?|_||||||
 e !>!c3 | B c G B- | B4 | F G A A- | A G F2 | G2 B2- | B4 | =A B =B c- | c =A G F | c _c2 B- | %41
w: * ber|my dough- nut girl|_|She brought them dough-|* nuts and|cof- fee|_|Just like an An-|* gel, she was|their best pal|
w: ||||||||||
 B3 B | B c B e- | e c2 B | B A G A- | A3 B | c =B c B | c =A G F | c _c2 B- | B z B2 | E2 F2 | %51
w: _ As|brave as a li-|* on but|meek as a lamb|_ She|car- ried on be-|side the sons of|Un- cle Sam|_ So|don't for-|
w: ||||||||||
 G2 A2 | B =A B e- | e B2 =B | c e2 c | d2 B2 |1 e4 | z4 :|2 e4- | e2 z2 |] %60
w: get the|Sal- va- tion Ar-|* my, Re-|mem- ber my|dough- nut|girl.||girl.|_|
w: |||||||||
V:2
 !>!E2 !>!F2 | !>!G2 !>!A2 | [B,EB][=A,E=A][B,EB][EGe]- | [EGe] [B,GB]2 =B | [E=Ac] [EAe]2 [EAc] | %5
 d2 B2 | !>![EGe](G/A/ BG) | E2 !arpeggio!!^![egbe'] z |:"^Vamp." [G,E]G[A,F]D | %9
 [G,E][^CGB] [DAB]2 :|!p! [G,E]G [A,F]D | [G,E]G [A,F]D | [G,E] [^CGB]2 [DAB]- | B4 | %14
 [G,E]G [A,F]D | [G,E]G [A,F]D | [G,E] [B,GB]2 [B,GB]- | [B,B]3 ^F | [B,G]B [C=A]^F | %19
 [B,G]B [C=A]^F | [B,G][DBd] [DGB][DBd]- | [Dd]4 | [FBd]^c [=EBd]B | [_EF=c][CE=A] [CEG][CEF] | %24
 B4- | B4 |: !>!E2 !>!F2 | !>!G2 !>!A2 | [B,EB][=A,E=A][B,EB][EGe]- | [EGe] [_D_d]3 | %30
 [EAc][=DA=B][EAc][Ece]- | [Ece] c3 | [EGB]c[B,EG][B,GB]- | [GB]4 | [A,B,F][B,G][CDA][CDA]- | %35
 [CDA][B,DG] [A,DF]2 | G2 B2- | B4 | [C_E=A][CEB][DF=B][EFc]- | [EFc]([CE=A][CEG][CEF]) | %40
 [E_Ac] [EA_c]2 [DAB]- | B3 B | [_DEB]c[DGB][EG_de]- | [EGde] [EGc]2 [_DEB] | %44
 [_DEB][CEA][=B,EG][CEA]- | A3 B | [_EAc][D^G=B][EAc][DGB] | [E=Ac][CE=A] [C=EG][C_EF] | %48
 [E_Ac] !>![EA_c]2 !>![DAB]- | [DAB] z !>![D^FB]2 | !>!E2 !>!F2 | !>!G2 !>!A2 | %52
 [B,EB][=A,E=A] [B,EB][EGe]- | [EGe] [B,GB]2 =B | [E=Ac] [EAe]2 [EAc] | d2 B2 |1 %56
!f! !>![EGe]!<(!(3(G/A/=A/)!<)! !>!B(3(G/_A/=A/) | !>!B !>![CDA]!>![B,DG]!>![A,DF] :|2 %58
 !>![EGe](G/A/ BG) | !>!E2 !arpeggio!!^![egbe'] z |] %60
V:3
 z [G,B,]z[A,B,] | z [B,E]z[B,D] | x4 | x3 z | x4 | z [F_A]z[DA] | x4 | x4 |: x4 | x4 :| x4 | x4 | %12
 x4 | [DA](F/G/ A/G/F) | x4 | x4 | x4 | G[EG]/[EG]/ [EG] z | x4 | x4 | x4 | B[GB]/[GB]/ [GB][GB] | %22
 x4 | x4 | D z !>![D_A]2 | !>![DG]2 !>![DF]2 |: z [G,B,]z[A,B,] | z [B,E]z[B,D] | x4 | x (GFE) | %30
 x4 | x [E^F]2 [EF] | x4 | B,(DCB,) | x4 | x4 | z [B,E]z[B,FG] | [B,=EG](EDC) | x4 | x4 | x4 | %41
 [DA][DA][DG][DF] | x4 | x4 | x4 | [CE][CE]/[CE]/ [CE][CE] | x4 | x4 | x4 | x4 | z [G,B,]z[A,B,] | %51
 z [B,E]z[B,D] | x4 | x3 z | x4 | z [F_A]z[DA] |1 x4 | x4 :|2 x4 | x4 |] %60
V:4
!f! !>![E,,E,]2 !>![D,,D,]2 | !>![E,,E,]2 !>![F,,F,]2 | [G,,G,][^F,,^F,][G,,G,][E,,E,]- | %3
 [E,,E,] z !>![G,,G,]2 | [F,,F,] z [F,,F,]2 | [B,,B,]2 [B,,B,]2 | !>![E,,E,](G,/A,/ B,G,) | %7
 !>!E,2!sfz! !arpeggio!!^![E,,B,,G,] z |: (B,,2 _C,2 | B,,)[=E,,=E,] [F,,F,]B,, :| (B,,2 _C,2) | %11
 (B,,2 (_C,2) | B,,) z !>![=E,,=E,]2- | [E,,E,] z B,,2 | (B,,2 _C,2) | B,,2 (_C,2 | %16
 B,,) z [B,,,B,,]2 | [E,,E,]3 z | (D,2 _E,2) | (D,2 (_E,2) | D,) z [D,,D,]2 | [G,,G,]4 | %22
 [F,,F,]2 [G,,G,]2 | [=A,,=A,][F,,F,] [G,,G,][A,,A,] | B, z (!>!C2 | !>!B,2 !>!A,2) |: %26
!p!!f! !>![E,,E,]2 !>![D,,D,]2 | !>![E,,E,]2 !>![F,,F,]2 | [G,,G,][^F,,^F,][G,,G,][B,,B,]- | %29
 [B,,B,](E,F,G,) | [A,,A,]z[E,,E,] z | [A,,A,] z [=A,,=A,]2 | [B,,B,] z [B,,,B,,]2 | %33
 [E,,E,]zB,, z | [D,,D,]z[B,,,B,,] z | [F,,F,] z B,,2 | [E,,E,][E,,E,] [D,,D,][_D,,_D,] | %37
 [C,,C,]([C,,C,][D,,D,][=E,,=E,]) | ([F,,F,][G,,G,][^G,,^G,])[=A,,=A,]- | %39
 [A,,A,][F,,F,][=G,,=G,][=A,,=A,] | [B,,B,] z !>![F,,F,]2 | F,(CB,A, | G,) z [E,,E,]2 | %43
 (B,,[E,,E,] [F,,F,][G,,G,]) | [A,,A,] z [E,,E,] z | [A,,A,][A,,A,][G,,G,][_G,,_G,] | %46
 [F,,F,]z[C,,C,] z | [F,,F,][F,,F,][G,,G,][=A,,=A,] | [B,,B,] z !>![F,,F,]2 | B,, z !>![B,,,B,,]2 | %50
 !>![E,,E,]2 !>![D,,D,]2 | !>![E,,E,]2 !>![F,,F,]2 | [G,,G,][^F,,^F,] [G,,G,][E,,E,]- | %53
 [E,,E,] z !>![G,,G,]2 | [F,,F,] z [F,,F,]2 | [B,,B,]2 [B,,B,]2 |1 %56
 !>![E,,E,](3(G,/A,/=A,/) !>!B,(3(G,/_A,/=A,/) | !>!B, z !>![B,,,B,,]2 :|2 %58
 !>![E,,E,](G,/A,/ B,G,) | !>!E,2 !arpeggio!!^![E,,B,,G,] z |] %60
V:5
 x4 | x4 | x4 | x4 | x4 | x4 | x4 | x4 |: E,,4- | E,, x x2 :| E,,4 | E,,4- | E,, x x2 | x4 | E,,4 | %15
 E,,4- | E,, x3 | x4 | G,,4 | G,,4- | G,, x x2 | x4 | x4 | x4 | B,,4- | B,,4 |: x4 | x4 | x4 | x4 | %30
 x4 | x4 | x4 | x4 | x4 | x4 | x4 | x4 | x4 | x4 | x4 | B,,3 z | E, x x2 | x4 | x4 | x4 | x4 | x4 | %48
 x4 | x4 | x4 | x4 | x4 | x4 | x4 | x4 |1 x4 | x4 :|2 x4 | x4 |] %60

